X:3165
T:Jul polska '98
O:england
R:Polska
M:3/4
C:Andy Hornby
A:Lancaster
K:Dm
A>f e<^c d>A| B>A- AG A>F| D>^C D>E F>G| A<^G A<E ^c2|\
A>f e<^c d>A| B>A- AG A>F|
D>^C D>E F>G| A>E- E^c d2::\
D>F- FD E>G| F>A- AF G>B|
A>F- FA G>E| F>D- DF (3ED^C|\
D>F- FD E>G| F>A- AF G>B| A>F- FA G>A| ^c2 d2 z2 :|
W:Copyright (C) A. Hornby


